icons/skype.svg

<?xml version="1.0" encoding="UTF-8" standalone="no"?>
<svg width="256px" height="256px" viewBox="0 0 256 256" version="1.1" xmlns="http://www.w3.org/2000/svg" xmlns:xlink="http://www.w3.org/1999/xlink" preserveAspectRatio="xMidYMid">
    <g>
        <path d="M246.93895,149.01069 C246.857867,149.460702 246.801109,149.914768 246.715971,150.364779 L246.278122,147.786333 C246.517317,148.187695 246.715971,148.605274 246.93895,149.01069 C248.260607,141.818608 248.953868,134.456251 248.953868,127.097949 C248.953868,110.779951 245.759189,94.948452 239.44686,80.0453559 C233.35751,65.64903 224.645118,52.7203104 213.536717,41.6200174 C202.444532,30.5197244 189.507704,21.8073323 175.119487,15.7179824 C160.220445,9.41376198 144.388946,6.21908306 128.070948,6.21908306 C120.380204,6.21908306 112.677298,6.94072373 105.181154,8.37995091 C105.164938,8.38400507 105.144667,8.38400507 105.124396,8.38805923 C105.546029,8.61103809 105.971716,8.80969198 106.38524,9.04077916 L103.843281,8.64347138 C104.268968,8.56238815 104.698709,8.47319661 105.124396,8.38805923 C94.8389896,2.91899596 83.2724681,0 71.564051,0 C52.4486816,0 34.4765856,7.4434397 20.9600127,20.9640668 C7.44749386,34.4806398 0,52.4527358 0,71.5681052 C0,83.7346425 3.12981234,95.6944176 9.00429171,106.263615 C9.08132077,105.825766 9.13402486,105.383863 9.21916225,104.946013 L9.65701164,107.479864 C9.42997862,107.082556 9.23132473,106.669032 9.00429171,106.263615 C7.81236836,113.111094 7.18397339,120.108576 7.18397339,127.097949 C7.18397339,143.420002 10.3786523,159.247446 16.6909811,174.154597 C22.7722227,188.554977 31.4886689,201.475588 42.5849078,212.575881 C53.6933091,223.676174 66.6139203,232.400728 81.0183546,238.473862 C95.9173965,244.790245 111.75295,247.988978 128.070948,247.988978 C135.173838,247.988978 142.292945,247.340312 149.241777,246.107847 C148.836361,245.880814 148.422836,245.674052 148.009312,245.434856 L150.591812,245.888922 C150.145855,245.97406 149.695843,246.026764 149.241777,246.107847 C159.948816,252.164764 172.070758,255.383768 184.448111,255.383768 C203.559427,255.383768 221.523414,247.95249 235.039987,234.427809 C248.560614,220.919344 256,202.943194 256,183.827825 C256,171.620746 252.853971,159.620429 246.93895,149.01069 L246.93895,149.01069 Z M128.553393,201.130984 C85.6076649,201.130984 66.3949956,180.016913 66.3949956,164.193523 C66.3949956,156.077092 72.3870457,150.389104 80.6453718,150.389104 C99.0228838,150.389104 94.2632988,176.777639 128.553393,176.777639 C146.10791,176.777639 155.801409,167.246306 155.801409,157.491995 C155.801409,151.625624 152.906738,145.122749 141.348325,142.272674 L103.15002,132.737287 C72.3870457,125.022219 66.8044659,108.39205 66.8044659,92.759205 C66.8044659,60.3015916 97.364732,48.1147834 126.064138,48.1147834 C152.501322,48.1147834 183.665658,62.7259799 183.665658,82.1981154 C183.665658,90.5415789 176.441143,95.3944097 168.186871,95.3944097 C152.501322,95.3944097 155.387885,73.6843772 123.793808,73.6843772 C108.116367,73.6843772 99.4323541,80.7832132 99.4323541,90.9429409 C99.4323541,101.082398 111.813762,104.321672 122.565397,106.770386 L150.839116,113.046227 C181.808853,119.946409 189.661763,138.027967 189.661763,155.059498 C189.661763,181.43587 169.415282,201.130984 128.553393,201.130984 Z M148.009312,245.434856 C148.422836,245.674052 148.836361,245.880814 149.241777,246.107847 C149.695843,246.026764 150.145855,245.97406 150.591812,245.888922 L148.009312,245.434856 Z M246.715971,150.364779 C246.801109,149.914768 246.857867,149.460702 246.93895,149.01069 C246.715971,148.605274 246.517317,148.187695 246.278122,147.786333 L246.715971,150.364779 Z M9.21916225,104.946013 C9.13402486,105.383863 9.08132077,105.825766 9.00429171,106.263615 C9.23132473,106.669032 9.42997862,107.082556 9.65701164,107.479864 L9.21916225,104.946013 Z M106.38524,9.04077916 C105.971716,8.80969198 105.546029,8.61103809 105.124396,8.38805923 C104.698709,8.47319661 104.268968,8.56238815 103.843281,8.64347138 L106.38524,9.04077916 Z" fill="#00AFF0"></path>
    </g>
</svg>

<svg xmlns="http://www.w3.org/2000/svg" viewBox="0 0 256 255.384">
  <path fill="#00aff0" d="M246.939 149.01c-.081.45-.138.905-.223 1.355l-.438-2.579c.24.402.438.82.661 1.225a121.489 121.489 0 0 0 2.015-21.913c0-16.318-3.195-32.15-9.507-47.053-6.09-14.396-14.802-27.325-25.91-38.425-11.092-11.1-24.03-19.813-38.418-25.902-14.899-6.304-30.73-9.499-47.048-9.499-7.69 0-15.394.722-22.89 2.161-.016.004-.036.004-.057.008.422.223.848.422 1.261.653l-2.542-.398c.426-.08.856-.17 1.281-.255C94.84 2.92 83.272 0 71.564 0 52.45 0 34.477 7.443 20.96 20.964 7.447 34.481 0 52.453 0 71.568a71.498 71.498 0 0 0 9.004 34.696c.077-.438.13-.88.215-1.318l.438 2.534c-.227-.397-.426-.811-.653-1.216a121.745 121.745 0 0 0-1.82 20.834c0 16.322 3.195 32.15 9.507 47.057 6.081 14.4 14.798 27.32 25.894 38.42 11.108 11.101 24.029 19.826 38.433 25.899 14.9 6.316 30.735 9.515 47.053 9.515 7.103 0 14.222-.649 21.17-1.881-.405-.227-.818-.434-1.232-.673l2.583.454c-.446.085-.896.138-1.35.219a71.506 71.506 0 0 0 35.206 9.276c19.111 0 37.075-7.432 50.592-20.956 13.52-13.509 20.96-31.485 20.96-50.6a71.57 71.57 0 0 0-9.061-34.817zm-118.386 52.121c-42.945 0-62.158-21.114-62.158-36.937 0-8.117 5.992-13.805 14.25-13.805 18.378 0 13.618 26.389 47.908 26.389 17.555 0 27.248-9.532 27.248-19.286 0-5.866-2.894-12.37-14.453-15.22l-38.198-9.535c-30.763-7.715-36.346-24.345-36.346-39.978 0-32.457 30.56-44.644 59.26-44.644 26.437 0 57.602 14.611 57.602 34.083 0 8.344-7.225 13.196-15.48 13.196-15.685 0-12.798-21.71-44.392-21.71-15.678 0-24.362 7.1-24.362 17.259 0 10.14 12.382 13.379 23.133 15.827l28.274 6.276c30.97 6.9 38.823 24.982 38.823 42.013 0 26.377-20.247 46.072-61.109 46.072zm19.456 44.304c.414.24.827.446 1.233.673.454-.081.904-.134 1.35-.22zm98.707-95.07c.085-.45.142-.904.223-1.354-.223-.406-.422-.823-.66-1.225zM9.219 104.946c-.085.438-.138.88-.215 1.318.227.405.426.819.653 1.216zm97.166-95.905c-.413-.231-.839-.43-1.26-.653-.426.085-.856.174-1.282.255z"/>
</svg>
